images/arrow.svg

<svg width="7" height="10" viewBox="0 0 7 10" fill="none" xmlns="http://www.w3.org/2000/svg">
<path d="M6.11167 4.4375L1.36167 0.1875C1.11167 -0.0625 0.611674 -0.0625 0.236674 0.1875C-0.138326 0.4375 -0.0133261 0.9375 0.236674 1.1875L4.36167 4.9375L0.361674 8.6875C0.111674 8.9375 0.111674 9.4375 0.361674 9.6875C0.361674 9.8125 0.736674 9.9375 0.861674 9.9375C0.986674 9.9375 1.23667 9.8125 1.36167 9.6875L6.11167 5.4375C6.48667 5.1875 6.48667 4.6875 6.11167 4.4375Z" fill="white"/>
</svg>

<svg xmlns="http://www.w3.org/2000/svg" width="7" height="10" fill="none" viewBox="0 0 7 10"><path fill="#fff" d="M6.112 4.438 1.362.188c-.25-.25-.75-.25-1.125 0s-.25.75 0 1l4.125 3.75-4 3.75c-.25.25-.25.75 0 1 0 .124.375.25.5.25s.375-.126.5-.25l4.75-4.25a.585.585 0 0 0 0-1"/></svg>
